fs/calendar_reply_28_regular.svg

<svg viewBox="0 0 28 28" fill="none" xmlns="http://www.w3.org/2000/svg" height="1em" width="1em">
  <path d="M21.75 3C23.5449 3 25 4.45507 25 6.25V14.4995C24.5384 14.1527 24.0355 13.858 23.5 13.6241V9.503H4.5V21.75C4.5 22.7165 5.2835 23.5 6.25 23.5H13.6241C13.858 24.0355 14.1527 24.5384 14.4995 25H6.25C4.45507 25 3 23.5449 3 21.75V6.25C3 4.45507 4.45507 3 6.25 3H21.75ZM21.75 4.5H6.25C5.2835 4.5 4.5 5.2835 4.5 6.25V8.003H23.5V6.25C23.5 5.2835 22.7165 4.5 21.75 4.5ZM27 20.5C27 24.0899 24.0899 27 20.5 27C16.9101 27 14 24.0899 14 20.5C14 16.9101 16.9101 14 20.5 14C24.0899 14 27 16.9101 27 20.5ZM18.8536 17.8536C19.0488 17.6583 19.0488 17.3417 18.8536 17.1464C18.6583 16.9512 18.3417 16.9512 18.1464 17.1464L16.1464 19.1464C15.9512 19.3417 15.9512 19.6583 16.1464 19.8536L18.1464 21.8536C18.3417 22.0488 18.6583 22.0488 18.8536 21.8536C19.0488 21.6583 19.0488 21.3417 18.8536 21.1464L17.7071 20H20.25C21.7688 20 23 21.2312 23 22.75V23C23 23.2761 23.2239 23.5 23.5 23.5C23.7761 23.5 24 23.2761 24 23V22.75C24 20.6789 22.3211 19 20.25 19H17.7071L18.8536 17.8536Z" fill="#212121"/>
</svg>

<svg viewBox="0 0 28 28" fill="none" xmlns="http://www.w3.org/2000/svg" height="1em" width="1em">
  <path d="M21.75 3A3.25 3.25 0 0 1 25 6.25v8.25a7.486 7.486 0 0 0-1.5-.876V9.503h-19V21.75c0 .966.784 1.75 1.75 1.75h7.374c.234.535.529 1.038.875 1.5H6.25A3.25 3.25 0 0 1 3 21.75V6.25A3.25 3.25 0 0 1 6.25 3h15.5Zm0 1.5H6.25A1.75 1.75 0 0 0 4.5 6.25v1.753h19V6.25a1.75 1.75 0 0 0-1.75-1.75Zm5.25 16a6.5 6.5 0 1 1-13 0 6.5 6.5 0 0 1 13 0Zm-8.146-2.646a.5.5 0 0 0-.708-.708l-2 2a.5.5 0 0 0 0 .708l2 2a.5.5 0 0 0 .708-.708L17.707 20h2.543A2.75 2.75 0 0 1 23 22.75V23a.5.5 0 0 0 1 0v-.25A3.75 3.75 0 0 0 20.25 19h-2.543l1.147-1.146Z" fill="#212121"/>
</svg>
